X: 55
T:Belgian Polka
M:2/4
L:1/8
R:Polka
Z:Steve Mansfield
K:C
e>d cA | GA c2 | Bc dB | cd ec | e>d cA | GA c2 |
Bc dB | c2 c2 :: d>c B/c/d | cd ec | d>c B/c/d |
cA G2 | d>c B/c/d | cd ec | d>c B/c/d | cB c2:|
<end>
<start>
